X: 1
T: Old Mother Flanagan
R: reel
N: Compare Greenfields of America and Off to California.
Z: 1999 John Chambers <jc:trillian.mit.edu>
M: C|
L: 1/8
K: A
|: "A"a2ae fecd | efec "(E)"BAFG | "A"ABAF EFAB |1,3 cBcd "E7"e4 :|2,4 "E7"cAB2 "A"A4 :|
|: "A"ABAF EFAB | c2cA "(E)"BAFG | "A"ABAF EFAB | cBcd "E7"e4 |
|  "D"f2fd "A"efec | "Bm"BcBA "E7"FEFG | "A"ABAF EFAB | "E7"cAB2 "A"A4 :|
